SVG/external-link.svg

<?xml version="1.0" encoding="utf-8"?>
<!-- Generated by IcoMoon.io -->
<!DOCTYPE svg PUBLIC "-//W3C//DTD SVG 1.1//EN" "http://www.w3.org/Graphics/SVG/1.1/DTD/svg11.dtd">
<svg version="1.1" xmlns="http://www.w3.org/2000/svg" xmlns:xlink="http://www.w3.org/1999/xlink" width="14" height="14" viewBox="0 0 14 14">
<path fill="#444444" d="M11 7.25v2.5q0 0.93-0.66 1.59t-1.59 0.66h-6.5q-0.93 0-1.59-0.66t-0.66-1.59v-6.5q0-0.93 0.66-1.59t1.59-0.66h5.5q0.109 0 0.18 0.070t0.070 0.18v0.5q0 0.109-0.070 0.18t-0.18 0.070h-5.5q-0.516 0-0.883 0.367t-0.367 0.883v6.5q0 0.516 0.367 0.883t0.883 0.367h6.5q0.516 0 0.883-0.367t0.367-0.883v-2.5q0-0.109 0.070-0.18t0.18-0.070h0.5q0.109 0 0.18 0.070t0.070 0.18zM14 0.5v4q0 0.203-0.148 0.352t-0.352 0.148-0.352-0.148l-1.375-1.375-5.094 5.094q-0.078 0.078-0.18 0.078t-0.18-0.078l-0.891-0.891q-0.078-0.078-0.078-0.18t0.078-0.18l5.094-5.094-1.375-1.375q-0.148-0.148-0.148-0.352t0.148-0.352 0.352-0.148h4q0.203 0 0.352 0.148t0.148 0.352z"></path>
</svg>

<svg xmlns="http://www.w3.org/2000/svg" viewBox="0 0 14 14"><path d="M11 7.25v2.5q0 .93-.66 1.59T8.75 12h-6.5q-.93 0-1.59-.66T0 9.75v-6.5q0-.93.66-1.59T2.25 1h5.5q.11 0 .18.07t.07.18v.5q0 .11-.07.18T7.75 2h-5.5q-.516 0-.883.367T1 3.25v6.5q0 .516.367.883T2.25 11h6.5q.516 0 .883-.367T10 9.75v-2.5q0-.11.07-.18t.18-.07h.5q.11 0 .18.07t.07.18zM14 .5v4q0 .203-.148.352T13.5 5t-.352-.148l-1.375-1.375L6.68 8.57q-.08.08-.18.08t-.18-.08l-.892-.89q-.078-.078-.078-.18t.078-.18l5.094-5.094L9.147.85Q9 .704 9 .5t.147-.353T9.5 0h4q.202 0 .35.147T14 .5z" /></svg>
